svgs/sharp-solid/gallery-thumbnails.svg

<svg xmlns="http://www.w3.org/2000/svg" viewBox="0 0 576 512"><!--! Font Awesome Pro 6.6.0 by @fontawesome - https://fontawesome.com License - https://fontawesome.com/license (Commercial License) Copyright 2024 Fonticons, Inc. --><path d="M512 64l0 224L64 288 64 64l448 0zM64 0L0 0 0 64 0 288l0 64 64 0 448 0 64 0 0-64 0-224 0-64L512 0 64 0zM0 416l0 96 96 0 0-96L0 416zm256 0l-96 0 0 96 96 0 0-96zm64 0l0 96 96 0 0-96-96 0zm256 0l-96 0 0 96 96 0 0-96z"/></svg>

<svg xmlns="http://www.w3.org/2000/svg" viewBox="0 0 576 512"><!--! Font Awesome Pro 6.4.0 by @fontawesome - https://fontawesome.com License - https://fontawesome.com/license (Commercial License) Copyright 2023 Fonticons, Inc. --><path d="M512 64V288H64V64H512zM64 0H0V64 288v64H64 512h64V288 64 0H512 64zM0 416v96H96V416H0zm256 0H160v96h96V416zm64 0v96h96V416H320zm256 0H480v96h96V416z"/></svg>
